X: 8
T:Constant Billy (Bampton)
S:CJS
O:England; Oxfordshire; Bampton.
B:Lionel Bacon, A Handbook of Morris Dances
Z:http://www.themorrisring.org/music/handbook-morris-dances
M:6/8
Q:1/4=128
P:A(AB2)4
K:Bb
P:A
|:F|B2f  d>Bd|e2c c>Bc|d>cB G>AB|FGA B2:|
P:B
d>ef g>ab|c>de fdB|d>ef g>ab|c>de f3|
B2f d>Bd|e2c c>Bc|d>cB G>AB|F>GA B2|

